flaticon/holiday/sprite.svg

<svg xmlns="http://www.w3.org/2000/svg" width="32" height="32" viewBox="0 0 24 24">
    <path d="M10.410156 13.820312C10.414062 13.820312 10.417969 13.820312 10.421875 13.820312 10.5625 13.820312 10.691406 13.753906 10.765625 13.636719 10.902344 13.429688 11.007812 13.191406 11.089844 12.945312 11.09375 12.945312 11.09375 12.941406 11.09375 12.941406 11.09375 12.9375 11.09375 12.9375 11.09375 12.933594 11.308594 12.296875 11.347656 11.558594 11.207031 10.792969 11.195312 10.730469 11.183594 10.667969 11.171875 10.609375 11.148438 10.507812 11.125 10.40625 11.097656 10.304688 11.070312 10.210938 11.039062 10.113281 11.007812 10.015625 10.984375 9.941406 10.960938 9.867188 10.929688 9.789062 10.863281 9.613281 10.789062 9.4375 10.703125 9.261719 10.601562 9.054688 10.488281 8.855469 10.363281 8.664062 10.363281 8.664062 10.363281 8.664062 10.363281 8.660156 9.527344 7.375 8.277344 6.550781 7.09375 6.550781 7.089844 6.550781 7.085938 6.550781 7.082031 6.550781 6.945312 6.550781 6.816406 6.621094 6.738281 6.734375 6.007812 7.835938 6.03125 9.550781 6.800781 11.109375 7.601562 12.734375 9.050781 13.820312 10.410156 13.820312zM9.867188 9.460938C9.898438 9.515625 9.933594 9.570312 9.960938 9.628906 10.027344 9.761719 10.085938 9.898438 10.140625 10.035156 10.15625 10.078125 10.167969 10.117188 10.183594 10.160156 10.214844 10.242188 10.242188 10.328125 10.265625 10.410156 10.203125 10.371094 10.132812 10.34375 10.054688 10.34375 9.828125 10.34375 9.644531 10.53125 9.644531 10.757812 9.644531 10.988281 9.828125 11.171875 10.054688 11.171875 10.203125 11.171875 10.328125 11.089844 10.402344 10.972656 10.40625 10.984375 10.40625 10.996094 10.410156 11.007812 10.429688 11.128906 10.445312 11.25 10.453125 11.371094 10.460938 11.453125 10.460938 11.535156 10.460938 11.617188 10.464844 11.652344 10.464844 11.6875 10.464844 11.722656 10.460938 11.820312 10.457031 11.917969 10.449219 12.015625 10.449219 12.019531 10.449219 12.023438 10.445312 12.027344 10.4375 12.128906 10.421875 12.234375 10.402344 12.332031 9.714844 12.128906 9.230469 11.5 9.230469 10.757812 9.230469 10.246094 9.472656 9.769531 9.867188 9.460938zM7.3125 7.390625C8.042969 7.480469 8.820312 7.996094 9.421875 8.765625 8.792969 9.230469 8.402344 9.964844 8.402344 10.757812 8.402344 11.542969 8.761719 12.234375 9.332031 12.6875 8.636719 12.3125 7.976562 11.621094 7.542969 10.742188 6.957031 9.5625 6.875 8.25 7.3125 7.390625zM17.898438 16.898438C18.097656 16.53125 18.207031 16.136719 18.207031 15.722656 18.207031 15.496094 18.023438 15.308594 17.792969 15.308594 17.566406 15.308594 17.378906 15.496094 17.378906 15.722656 17.378906 15.914062 17.34375 16.097656 17.273438 16.277344L16.742188 15.746094C16.582031 15.582031 16.320312 15.582031 16.160156 15.746094 15.996094 15.90625 15.996094 16.167969 16.160156 16.328125L16.816406 16.984375C16.453125 17.375 15.9375 17.714844 15.3125 17.984375L14.839844 17.171875C14.726562 16.972656 14.472656 16.90625 14.277344 17.019531 14.078125 17.136719 14.011719 17.386719 14.125 17.585938L14.519531 18.269531C13.878906 18.457031 13.164062 18.578125 12.414062 18.609375L12.414062 17.792969C12.414062 17.5625 12.226562 17.378906 12 17.378906 11.773438 17.378906 11.585938 17.5625 11.585938 17.792969L11.585938 18.609375C10.835938 18.578125 10.121094 18.457031 9.480469 18.269531L9.875 17.585938C9.988281 17.386719 9.921875 17.136719 9.722656 17.019531 9.527344 16.90625 9.273438 16.976562 9.160156 17.171875L8.691406 17.984375C8.0625 17.714844 7.546875 17.375 7.183594 16.984375L7.839844 16.332031C8.003906 16.167969 8.003906 15.90625 7.839844 15.746094 7.679688 15.582031 7.417969 15.582031 7.257812 15.746094L6.726562 16.277344C6.65625 16.097656 6.621094 15.914062 6.621094 15.722656 6.621094 15.496094 6.433594 15.308594 6.207031 15.308594 5.976562 15.308594 5.792969 15.496094 5.792969 15.722656 5.792969 16.136719 5.902344 16.53125 6.101562 16.898438L5.5 17.5C5.339844 17.664062 5.339844 17.925781 5.5 18.085938 5.582031 18.167969 5.6875 18.207031 5.792969 18.207031 5.898438 18.207031 6.003906 18.167969 6.085938 18.085938L6.59375 17.578125C7.015625 18.023438 7.585938 18.410156 8.269531 18.714844L7.917969 19.324219C7.804688 19.519531 7.871094 19.773438 8.070312 19.886719 8.132812 19.925781 8.207031 19.941406 8.273438 19.941406 8.417969 19.941406 8.558594 19.867188 8.632812 19.734375L9.050781 19.015625C9.808594 19.253906 10.667969 19.402344 11.585938 19.4375L11.585938 20.277344C11.585938 20.503906 11.769531 20.691406 12 20.691406 12.226562 20.691406 12.414062 20.503906 12.414062 20.277344L12.414062 19.4375C13.332031 19.402344 14.1875 19.253906 14.949219 19.015625L15.367188 19.738281C15.441406 19.871094 15.582031 19.945312 15.722656 19.945312 15.792969 19.945312 15.867188 19.925781 15.929688 19.886719 16.128906 19.773438 16.195312 19.519531 16.082031 19.324219L15.730469 18.714844C16.414062 18.410156 16.984375 18.023438 17.402344 17.578125L17.914062 18.085938C17.996094 18.167969 18.101562 18.207031 18.207031 18.207031 18.3125 18.207031 18.417969 18.167969 18.5 18.085938 18.660156 17.925781 18.660156 17.664062 18.5 17.5zM12.488281 10.304688C12.460938 10.40625 12.4375 10.507812 12.414062 10.609375 12.402344 10.667969 12.390625 10.730469 12.378906 10.792969 12.242188 11.558594 12.277344 12.296875 12.492188 12.933594 12.492188 12.9375 12.492188 12.9375 12.492188 12.941406 12.492188 12.941406 12.496094 12.945312 12.496094 12.945312 12.578125 13.191406 12.683594 13.429688 12.820312 13.636719 12.898438 13.753906 13.027344 13.820312 13.164062 13.820312 13.167969 13.820312 13.171875 13.820312 13.175781 13.820312 14.535156 13.820312 15.984375 12.734375 16.785156 11.109375 17.554688 9.554688 17.578125 7.835938 16.847656 6.734375 16.773438 6.621094 16.644531 6.550781 16.503906 6.550781 16.5 6.550781 16.496094 6.550781 16.492188 6.550781 15.3125 6.550781 14.058594 7.375 13.226562 8.660156 13.226562 8.660156 13.226562 8.660156 13.222656 8.664062 13.101562 8.855469 12.984375 9.054688 12.882812 9.261719 12.796875 9.4375 12.722656 9.613281 12.65625 9.792969 12.628906 9.867188 12.605469 9.941406 12.578125 10.015625 12.546875 10.113281 12.515625 10.210938 12.488281 10.304688zM13.449219 10.035156C13.5 9.898438 13.558594 9.761719 13.625 9.628906 13.652344 9.570312 13.6875 9.515625 13.71875 9.460938 14.113281 9.769531 14.355469 10.246094 14.355469 10.757812 14.355469 11.5 13.871094 12.128906 13.183594 12.332031 13.164062 12.234375 13.148438 12.132812 13.140625 12.027344 13.140625 12.023438 13.136719 12.019531 13.136719 12.015625 13.128906 11.917969 13.125 11.820312 13.121094 11.722656 13.121094 11.6875 13.125 11.652344 13.125 11.621094 13.125 11.535156 13.125 11.453125 13.132812 11.371094 13.140625 11.25 13.15625 11.128906 13.175781 11.007812 13.179688 10.996094 13.183594 10.984375 13.183594 10.972656 13.257812 11.089844 13.382812 11.171875 13.53125 11.171875 13.757812 11.171875 13.945312 10.988281 13.945312 10.757812 13.945312 10.53125 13.757812 10.34375 13.53125 10.34375 13.453125 10.34375 13.382812 10.371094 13.320312 10.410156 13.34375 10.328125 13.371094 10.242188 13.402344 10.160156 13.417969 10.117188 13.429688 10.078125 13.449219 10.035156zM16.273438 7.390625C16.710938 8.25 16.628906 9.5625 16.042969 10.742188 15.609375 11.621094 14.949219 12.3125 14.253906 12.6875 14.824219 12.234375 15.183594 11.542969 15.183594 10.757812 15.183594 9.964844 14.792969 9.230469 14.164062 8.765625 14.765625 7.996094 15.542969 7.480469 16.273438 7.390625zM16.273438 7.390625"/>
    <path d="M 22.128906 6.230469 C 23 5.726562 23.585938 4.789062 23.585938 3.710938 L 23.585938 1.644531 C 23.585938 1.179688 23.210938 0.804688 22.746094 0.804688 L 20.679688 0.804688 C 20.675781 0.804688 20.675781 0.804688 20.675781 0.804688 C 19.902344 0.804688 19.171875 1.105469 18.621094 1.65625 C 18.488281 1.789062 18.375 1.929688 18.269531 2.082031 C 16.332031 0.722656 14.175781 0 12 0 C 9.925781 0 7.859375 0.664062 5.988281 1.90625 C 5.453125 1.234375 4.632812 0.804688 3.710938 0.804688 L 1.644531 0.804688 C 1.179688 0.804688 0.804688 1.179688 0.804688 1.644531 L 0.804688 3.710938 C 0.804688 4.667969 1.269531 5.515625 1.984375 6.046875 C 0.707031 8.074219 0 10.320312 0 12.414062 C 0 18.476562 5.71875 24 12 24 C 18.28125 24 24 18.476562 24 12.414062 C 24 10.386719 23.332031 8.207031 22.128906 6.230469 Z M 20.675781 1.632812 L 22.757812 1.644531 L 22.757812 3.710938 C 22.757812 4.574219 22.234375 5.3125 21.488281 5.628906 L 21.484375 5.628906 C 21.414062 5.660156 21.335938 5.679688 21.257812 5.699219 C 21.191406 5.71875 21.128906 5.742188 21.0625 5.753906 C 20.9375 5.777344 20.808594 5.792969 20.679688 5.792969 C 20.679688 5.792969 20.679688 5.792969 20.675781 5.792969 C 19.53125 5.792969 18.597656 4.859375 18.597656 3.710938 C 18.597656 3.585938 18.613281 3.460938 18.632812 3.339844 C 18.636719 3.324219 18.636719 3.304688 18.640625 3.285156 C 18.664062 3.179688 18.699219 3.078125 18.734375 2.976562 C 18.75 2.945312 18.761719 2.910156 18.777344 2.875 C 18.878906 2.640625 19.019531 2.425781 19.207031 2.242188 C 19.601562 1.847656 20.121094 1.632812 20.675781 1.632812 Z M 1.632812 3.710938 L 1.644531 1.632812 L 3.710938 1.632812 C 4.550781 1.632812 5.269531 2.132812 5.597656 2.847656 C 5.609375 2.871094 5.625 2.894531 5.632812 2.921875 C 5.675781 3.023438 5.710938 3.136719 5.734375 3.246094 C 5.742188 3.28125 5.75 3.3125 5.757812 3.347656 C 5.777344 3.464844 5.792969 3.585938 5.792969 3.710938 C 5.792969 4.859375 4.859375 5.792969 3.710938 5.792969 C 3.582031 5.792969 3.457031 5.777344 3.332031 5.753906 C 3.3125 5.75 3.289062 5.746094 3.269531 5.742188 C 3.152344 5.71875 3.039062 5.683594 2.933594 5.636719 C 2.90625 5.628906 2.882812 5.617188 2.859375 5.605469 C 2.136719 5.277344 1.632812 4.554688 1.632812 3.710938 Z M 12 23.171875 C 6.726562 23.171875 0.828125 18.570312 0.828125 12.414062 C 0.828125 10.457031 1.492188 8.351562 2.707031 6.441406 C 2.714844 6.445312 2.726562 6.445312 2.734375 6.449219 C 2.878906 6.5 3.027344 6.542969 3.183594 6.570312 C 3.199219 6.574219 3.21875 6.574219 3.234375 6.578125 C 3.390625 6.605469 3.550781 6.621094 3.710938 6.621094 C 4.914062 6.621094 5.949219 5.886719 6.390625 4.84375 C 6.539062 4.496094 6.621094 4.113281 6.621094 3.710938 C 6.621094 3.617188 6.617188 3.519531 6.605469 3.425781 C 6.597656 3.355469 6.585938 3.289062 6.574219 3.222656 C 6.570312 3.199219 6.570312 3.171875 6.566406 3.148438 C 6.546875 3.066406 6.527344 2.984375 6.503906 2.90625 C 6.5 2.894531 6.5 2.886719 6.496094 2.875 C 6.472656 2.792969 6.441406 2.714844 6.410156 2.636719 C 6.410156 2.628906 6.40625 2.621094 6.402344 2.613281 C 8.148438 1.445312 10.074219 0.828125 12 0.828125 C 14.046875 0.828125 16.082031 1.519531 17.90625 2.828125 C 17.867188 2.960938 17.835938 3.097656 17.8125 3.234375 C 17.808594 3.257812 17.804688 3.28125 17.800781 3.304688 C 17.78125 3.4375 17.769531 3.574219 17.769531 3.710938 C 17.769531 4.113281 17.851562 4.496094 18 4.84375 C 18.441406 5.886719 19.476562 6.621094 20.679688 6.621094 C 20.789062 6.621094 20.898438 6.613281 21.003906 6.601562 C 21.023438 6.597656 21.042969 6.59375 21.0625 6.59375 C 21.15625 6.578125 21.25 6.5625 21.339844 6.542969 C 21.347656 6.539062 21.351562 6.539062 21.359375 6.539062 C 22.53125 8.421875 23.171875 10.496094 23.171875 12.414062 C 23.171875 18.570312 17.273438 23.171875 12 23.171875 Z M 12 23.171875"/>
</svg>

<svg xmlns="http://www.w3.org/2000/svg" width="32" height="32" viewBox="0 0 24 24">
    <path d="M10.41 13.82h.012c.14 0 .27-.066.344-.183.136-.207.242-.446.324-.692.004 0 .004-.004.004-.004v-.007c.215-.637.254-1.375.113-2.141l-.035-.184a8.636 8.636 0 0 0-.074-.304 11.88 11.88 0 0 0-.168-.516 5.613 5.613 0 0 0-.566-1.125V8.66c-.837-1.285-2.087-2.11-3.27-2.11h-.012a.42.42 0 0 0-.344.184c-.73 1.102-.707 2.817.063 4.375.8 1.625 2.25 2.711 3.61 2.711zm-.543-4.36c.031.056.067.11.094.169.066.133.125.27.18.406.015.043.027.082.043.125.03.082.058.168.082.25a.396.396 0 0 0-.211-.066.413.413 0 0 0-.41.414c0 .23.183.414.41.414a.412.412 0 0 0 .347-.2c.004.012.004.024.008.036a3.835 3.835 0 0 1 .05.61c.005.034.005.07.005.105a7.357 7.357 0 0 1-.016.293c0 .004 0 .007-.004.011a2.6 2.6 0 0 1-.043.305 1.634 1.634 0 0 1-1.172-1.574c0-.512.243-.988.637-1.297zM7.312 7.39c.731.09 1.508.606 2.11 1.376a2.486 2.486 0 0 0-1.02 1.992c0 .785.36 1.476.93 1.93-.695-.376-1.355-1.067-1.789-1.946-.586-1.18-.668-2.492-.23-3.351zm0 0M17.898 16.898c.2-.367.309-.761.309-1.175a.414.414 0 0 0-.828 0c0 .191-.035.375-.106.554l-.53-.53a.406.406 0 0 0-.583 0 .406.406 0 0 0 0 .581l.656.656c-.363.391-.878.73-1.503 1l-.473-.812a.411.411 0 0 0-.563-.152.416.416 0 0 0-.152.566l.395.684a8.856 8.856 0 0 1-2.106.34v-.817a.414.414 0 0 0-.828 0v.816a8.856 8.856 0 0 1-2.106-.34l.395-.683a.416.416 0 0 0-.152-.566.414.414 0 0 0-.563.152l-.469.812c-.629-.27-1.144-.609-1.507-1l.656-.652a.41.41 0 0 0 0-.586.406.406 0 0 0-.582 0l-.531.531a1.505 1.505 0 0 1-.106-.554.414.414 0 0 0-.828 0c0 .414.11.808.309 1.175L5.5 17.5a.417.417 0 0 0 0 .586.41.41 0 0 0 .293.121.41.41 0 0 0 .293-.121l.508-.508c.422.445.992.832 1.676 1.137l-.352.61a.411.411 0 0 0 .355.616.41.41 0 0 0 .36-.207l.418-.718a9.743 9.743 0 0 0 2.535.422v.84a.414.414 0 0 0 .828 0v-.84a9.771 9.771 0 0 0 2.535-.422l.418.722a.408.408 0 0 0 .563.149.411.411 0 0 0 .152-.563l-.352-.61c.684-.304 1.254-.69 1.672-1.136l.512.508a.41.41 0 0 0 .293.121.41.41 0 0 0 .293-.121.417.417 0 0 0 0-.586zm0 0M12.488 10.305a8.64 8.64 0 0 0-.074.304l-.035.184c-.137.766-.102 1.504.113 2.14v.008l.004.004c.082.246.188.485.324.692a.411.411 0 0 0 .344.183h.012c1.36 0 2.808-1.086 3.61-2.71.769-1.555.792-3.274.062-4.376a.41.41 0 0 0-.344-.183h-.012c-1.18 0-2.433.824-3.265 2.11l-.004.003c-.121.191-.239.39-.34.598-.086.175-.16.351-.227.531-.027.074-.05.148-.078.223a11.88 11.88 0 0 0-.09.289zm.961-.27c.051-.137.11-.273.176-.406.027-.059.063-.113.094-.168.394.309.636.785.636 1.297 0 .742-.484 1.37-1.171 1.574-.02-.098-.036-.2-.043-.305 0-.004-.004-.007-.004-.011-.008-.098-.012-.196-.016-.293 0-.036.004-.07.004-.102 0-.086 0-.168.008-.25.008-.121.023-.242.043-.363a.114.114 0 0 0 .008-.035c.074.117.199.199.347.199a.414.414 0 0 0 0-.828.396.396 0 0 0-.21.066 3.11 3.11 0 0 1 .081-.25c.016-.043.028-.082.047-.125zm2.824-2.644c.438.859.356 2.171-.23 3.351-.434.88-1.094 1.57-1.79 1.945.571-.453.93-1.144.93-1.93 0-.792-.39-1.527-1.019-1.991.602-.77 1.379-1.286 2.11-1.375zm0 0"/>
    <path d="M22.129 6.23a2.906 2.906 0 0 0 1.457-2.52V1.646a.839.839 0 0 0-.84-.84h-2.07a2.887 2.887 0 0 0-2.406 1.277C16.332.722 14.176 0 12 0 9.926 0 7.86.664 5.988 1.906A2.903 2.903 0 0 0 3.711.805H1.645a.839.839 0 0 0-.84.84V3.71c0 .957.465 1.805 1.18 2.336C.706 8.074 0 10.32 0 12.414 0 18.477 5.719 24 12 24s12-5.523 12-11.586c0-2.027-.668-4.207-1.871-6.184zm-1.453-4.597l2.082.012V3.71c0 .863-.524 1.602-1.27 1.918h-.004c-.07.031-.148.05-.226.07-.067.02-.13.043-.195.055-.125.023-.254.039-.383.039h-.004a2.083 2.083 0 0 1-2.078-2.082c0-.125.015-.25.035-.371.004-.016.004-.035.008-.055.023-.105.058-.207.093-.308.016-.032.028-.067.043-.102a2.06 2.06 0 0 1 1.898-1.242zM1.633 3.71l.012-2.078H3.71c.84 0 1.559.5 1.887 1.215.011.023.027.047.035.074.043.101.078.215.101.324l.024.102c.02.117.035.238.035.363a2.084 2.084 0 0 1-2.082 2.082c-.129 0-.254-.016-.379-.04l-.062-.01a1.602 1.602 0 0 1-.336-.106 2.08 2.08 0 0 1-1.3-1.926zM12 23.17c-5.273 0-11.172-4.6-11.172-10.757 0-1.957.664-4.062 1.879-5.973.008.004.02.004.027.008.145.051.293.094.45.121.015.004.035.004.05.008.157.027.317.043.477.043a2.913 2.913 0 0 0 2.894-3.195 3.16 3.16 0 0 0-.03-.203c-.005-.024-.005-.051-.009-.075a4.382 4.382 0 0 0-.062-.242c-.004-.011-.004-.02-.008-.031-.023-.082-.055-.16-.086-.238 0-.008-.004-.016-.008-.024C8.148 1.445 10.074.828 12 .828c2.047 0 4.082.692 5.906 2-.039.133-.07.27-.093.406l-.012.07a2.878 2.878 0 0 0 .2 1.54 2.913 2.913 0 0 0 3.003 1.758c.02-.004.039-.008.058-.008.094-.016.188-.032.278-.051.008-.004.012-.004.02-.004 1.171 1.883 1.812 3.957 1.812 5.875 0 6.156-5.899 10.758-11.172 10.758zm0 0"/>
</svg>
